X:1
T:E Major Abraham Maxim, 1802
T:Isaac Watts, 1717 (Psalm 47)                   86. 86. (C. M.) 
T:Knoxville Transcribed from The Village Harmony, 1803.
%%score [ 1 2 3 ]
L:1/8
Q:1/4=90
M:2/4
K:E
V:1 treble nm="Tr." snm="Tr."
V:2 treble-8 nm="T." snm="T."
V:3 bass nm="B." snm="B."
V:1
"^1.  O    for    a     shout   of      sa  –  cred   joy    To   God  the  sovereign  King!  Let  eve–ry  land  their  tongues employ,  And" G2 | %1
 G3 E | BG cA | Gc BA | G3 G | B2 GE | F2 F2 | F3 G | G3 E | BG cA | Gc BA | G3 F | %12
"^1. hymns of   tri – umph sing.          Je –sus   our  God  a – scends  on    high,  His   heav'nly  guards  around         At–tend  him" Gc Be | %13
 GE FA | G4 |: z2 B2 | e2 ec | d3 B | c2 c^A | F3 G | A2 AF | G2 GE | (E2 D2) | z2 G2 | G2 BG | %25
"^1.  ri  –  sing  through the sky,  With   trumpets'   joyful   sound."{G} F3 G | A2 cA | %27
{A} G3 G | ce AF | G2 TF2 | E4 :| %31
V:2
"^2. While angels shout and praise their King,  Let mortals learn their strains;  Let  all  the  earth  his   ho – nors  sing;  O'er" B2 | %1
 e3 B | GE c2 | Be d2 | e3 e | f2 ed | c2 B^A | B3 B | e3 B | GE c2 | Be d2 | e3 f | %12
"^2.  all   the  earth   he  reigns.       Rehearse his praise with awe profound,  Let knowledge lead the song,     Nor  mock  him" Be Gc | %13
 BG F2 | E4 |: z2 e2 | g2 ge | f3 d | e2 ec | d3 B | c2 c^A | B2 BG | (G2 F2) | z2 B2 | e2 ge | %25
"^2.  with  a      sol – emn  sound   Up – on  a   thoughtless   tongue."{e} d3 B | c2 ec | %27
{c} B3 B | cB cf | e2 Td2 | e4 :| %31
V:3
"^3. In   Is – rael  stood  his  an – cient throne,  He  loved  that  chosen  race;  But  now  he  calls   the   world  his  own,  And" E,2 | %1
 E,3 E, | E,2 A,F, | G,A, B,2 | E,3 E, | B,2 E,2 | F,2 F,2 | B,,3 E, | E,3 E, | E,2 A,F, | %10
 G,A, B,2 | E,3 B,, | %12
"^3. heathens  taste  his  grace.   Know all the  nations  are  the Lord's,  Where Abraham's God is  known;  While pow'rs and" E,2 G,E, | %13
 B,2 B,,2 | E,4 |: z2 E,2 | E,2 E,2 | B,3 B,, | A,2 ^A,,2 | B,,3 E, | C,2 C,2 | E,2 E,2 | B,,4 | %23
 z2 E,2 | E,2 E,2 |"^3. princes,  shields  and swords,  Sub–mit  be – fore  his  throne." B,3 E, | %26
 A,,2 A,,2 | E,3 E, | A,G, F,2 | B,2 B,,2 | E,4 :| %31

